svg/u1f237.svg

<svg viewBox="0 0 128 128" xmlns="http://www.w3.org/2000/svg">
  <g>
    <path d="M116,4H12c-4.42,0-8,3.58-8,8v104c0,4.42,3.58,8,8,8h104c4.42,0,8-3.58,8-8V12 C124,7.58,120.42,4,116,4z" fill="#F77E00"/>
    <path d="M109.7,4H11.5C7.37,4.03,4.03,7.37,4,11.5v97.9c-0.01,4.14,3.34,7.49,7.48,7.5c0.01,0,0.01,0,0.02,0 h98.1c4.14,0.01,7.49-3.34,7.5-7.48c0-0.01,0-0.01,0-0.02V11.5c0.09-4.05-3.13-7.41-7.18-7.5C109.85,4,109.77,4,109.7,4z" fill="#FF9800"/>
    <path d="M39.7,12.9c0-2.3-1.6-3-10.8-2.7c-7.7,0.3-11.5,1.2-13.8,4 s-2.9,8.5-3,15.3c0,4.8,0,9.3,2.5,9.3c3.4,0,3.4-7.9,6.2-12.3C26.2,17.8,39.7,15.9,39.7,12.9z" opacity="0.75" fill="#FFBD52" enable-background="new "/>
    <path d="M96,95.2c0,5.7-1.5,8.4-5.3,9.9s-9.8,1.8-18.8,1.8c-0.87,0-1.64-0.57-1.9-1.4 c-0.53-1.7-1.17-3.37-1.9-5c-0.44-1.01,0.02-2.19,1.03-2.63c0.24-0.11,0.5-0.16,0.77-0.17c6.2,0.2,11.9,0.1,13.9,0.1 s2.8-0.8,2.8-2.8V80.3c0-1.1-0.9-2-2-2H45.2c-0.91-0.01-1.7,0.62-1.9,1.5c-2.4,9.5-6.7,18.8-14.3,25.9 c-0.76,0.75-1.98,0.74-2.73-0.02c-0.02-0.02-0.05-0.05-0.07-0.08c-1.1-1.2-2.5-2.5-3.7-3.6c-0.83-0.73-0.9-2-0.17-2.82 c0.02-0.03,0.05-0.05,0.07-0.08c13.2-12.6,14.5-30.3,14.5-44.6V26.8c0-1.1,0.9-2,2-2H94c1.1,0,2,0.9,2,2V95.2z M86.7,67.9V57.8 c0-1.1-0.9-2-2-2H47.9c-1.07,0-1.95,0.83-2,1.9c-0.1,3.2-0.3,6.5-0.6,10c-0.1,1.06,0.67,1.99,1.73,2.09 c0.09,0.01,0.18,0.01,0.27,0.01h37.5C85.85,69.8,86.7,68.95,86.7,67.9z M46,35.3v10.1c0,1.1,0.9,2,2,2h36.8c1.1,0,2-0.9,2-2V35.3 c0-1.1-0.9-2-2-2H47.9c-1.06,0.01-1.91,0.88-1.9,1.94C46,35.26,46,35.28,46,35.3z" fill="#FAFAFA"/>
  </g>
</svg>

<svg viewBox="0 0 128 128" xmlns="http://www.w3.org/2000/svg">
  <defs/>
  <path d="M116,4 L12,4 C7.58,4 4,7.58 4,12 L4,116 C4,120.42 7.58,124 12,124 L116,124 C120.42,124 124,120.42 124,116 L124,12 C124,7.58 120.42,4 116,4 Z" fill="#F77E00"/>
  <path d="M109.7,4 L11.5,4 C7.37,4.03 4.03,7.37 4,11.5 L4,109.4 C3.99,113.54 7.34,116.89 11.48,116.9 C11.49,116.9 11.49,116.9 11.5,116.9 L109.6,116.9 C113.74,116.91 117.09,113.56 117.1,109.42 C117.1,109.41 117.1,109.41 117.1,109.4 L117.1,11.5 C117.19,7.45 113.97,4.09 109.92,4 C109.85,4 109.77,4 109.7,4 Z" fill="#FF9800"/>
  <path d="M39.7,12.9 C39.7,10.6 38.1,9.9 28.9,10.2 C21.2,10.5 17.4,11.4 15.1,14.2 C12.8,17 12.2,22.7 12.1,29.5 C12.1,34.3 12.1,38.8 14.6,38.8 C18,38.8 18,30.9 20.8,26.5 C26.2,17.8 39.7,15.9 39.7,12.9 Z" fill="#FFBD52" opacity="0.75"/>
  <path d="M96,95.2 C96,100.9 94.5,103.6 90.7,105.1 C86.9,106.6 80.9,106.9 71.9,106.9 C71.03,106.9 70.26,106.33 70,105.5 C69.47,103.8 68.83,102.13 68.1,100.5 C67.66,99.49 68.12,98.31 69.13,97.87 C69.37,97.76 69.63,97.71 69.9,97.7 C76.1,97.9 81.8,97.8 83.8,97.8 C85.8,97.8 86.6,97 86.6,95 L86.6,80.3 C86.6,79.2 85.7,78.3 84.6,78.3 L45.2,78.3 C44.29,78.29 43.5,78.92 43.3,79.8 C40.9,89.3 36.6,98.6 29,105.7 C28.24,106.45 27.02,106.44 26.27,105.68 C26.25,105.66 26.22,105.63 26.2,105.6 C25.1,104.4 23.7,103.1 22.5,102 C21.67,101.27 21.6,100 22.33,99.18 C22.35,99.15 22.38,99.13 22.4,99.1 C35.6,86.5 36.9,68.8 36.9,54.5 L36.9,26.8 C36.9,25.7 37.8,24.8 38.9,24.8 L94,24.8 C95.1,24.8 96,25.7 96,26.8 L96,95.2 Z M86.7,67.9 L86.7,57.8 C86.7,56.7 85.8,55.8 84.7,55.8 L47.9,55.8 C46.83,55.8 45.95,56.63 45.9,57.7 C45.8,60.9 45.6,64.2 45.3,67.7 C45.2,68.76 45.97,69.69 47.03,69.79 C47.12,69.8 47.21,69.8 47.3,69.8 L84.8,69.8 C85.85,69.8 86.7,68.95 86.7,67.9 Z M46,35.3 L46,45.4 C46,46.5 46.9,47.4 48,47.4 L84.8,47.4 C85.9,47.4 86.8,46.5 86.8,45.4 L86.8,35.3 C86.8,34.2 85.9,33.3 84.8,33.3 L47.9,33.3 C46.84,33.31 45.99,34.18 46,35.24 C46,35.26 46,35.28 46,35.3 Z" fill="#FAFAFA"/>
</svg>
